!!!COM: Palestrina, Giovanni Perluigi da
!!!OPR: Confitebor tibi
!!!OTL: Credo
**kern	**kern	**kern	**kern	**kern	**kern	**kern	**kern
*Ibass	*Itenor	*Icalto	*Icant	*Ibass	*Itenor	*Icalto	*Icant
!Bassus	!Tenor	!Altus	!Cantus	!Bassus	!Tenor	!Altus	!Cantus
*clefF4	*clefGv2	*clefG2	*clefG2	*clefF4	*clefGv2	*clefG2	*clefG2
*k[b-]	*k[b-]	*k[b-]	*k[b-]	*k[b-]	*k[b-]	*k[b-]	*k[b-]
*G:dor	*G:dor	*G:dor	*G:dor	*G:dor	*G:dor	*G:dor	*G:dor
*M4/2	*M4/2	*M4/2	*M4/2	*M4/2	*M4/2	*M4/2	*M4/2
=1	=1	=1	=1	=1	=1	=1	=1
0r	0r	0r	0r	1r	1r	0r	0g
.	.	.	.	[1G	[1d	.	.
=2	=2	=2	=2	=2	=2	=2	=2
0r	0r	0r	0r	1G]	1d]	0g	1b-
.	.	.	.	1c	1e	.	1cc
=3	=3	=3	=3	=3	=3	=3	=3
0r	0r	0r	0r	1B-	1f	1b-	2.dd
.	.	.	.	.	.	.	4cc
.	.	.	.	4G	2g	1b-	4b-
.	.	.	.	4A	.	.	4cc
.	.	.	.	4B-	2g	.	4dd
.	.	.	.	4c	.	.	4ee
=4	=4	=4	=4	=4	=4	=4	=4
0r	0r	0r	0r	1.d	4f	4a	1.ff
.	.	.	.	.	4e	4g	.
.	.	.	.	.	4d	4f	.
.	.	.	.	.	4e	4g	.
.	.	.	.	.	4f	4a	.
.	.	.	.	.	4g	4b-	.
.	.	.	.	2A	[2a	2cc	2ee
=5	=5	=5	=5	=5	=5	=5	=5
0r	1r	0r	0r	2B-	4a]	1b-	0dd
.	.	.	.	.	4g	.	.
.	.	.	.	2G	1g	.	.
.	2r	.	.	1d	.	2a	.
.	2a	.	.	.	4f	[2d	.
.	.	.	.	.	4e	.	.
=6	=6	=6	=6	=6	=6	=6	=6
1d	2a	1r	2r	2D	4f	4d]	1.dd
.	.	.	.	.	4e	4e	.
.	2a	.	2ff	2D	4d	4f	.
.	.	.	.	.	4e	4g	.
2d	1a	2r	2ff	[1D	4f	2a	.
.	.	.	.	.	4g	.	.
2d	.	2a	2ff	.	[2a	[2f	4cc
.	.	.	.	.	.	.	4b-
=7	=7	=7	=7	=7	=7	=7	=7
1d	2f	2a	1ff	1D]	2a]	4f]	0a
.	.	.	.	.	.	4g	.
.	2d	2a	.	.	2.A	4a	.
.	.	.	.	.	.	4b-	.
2c	1e	1a	2ee	1A	.	1cc	.
.	.	.	.	.	4B-	.	.
2A	.	.	2cc	.	2c	.	.
=8	=8	=8	=8	=8	=8	=8	=8
1B-	4d	2f	1dd	0r	0r	0r	0r
.	4e	.	.	.	.	.	.
.	4f	2d	.	.	.	.	.
.	4g	.	.	.	.	.	.
4A	2a	2e	4cc	.	.	.	.
4G	.	.	4b-	.	.	.	.
4F	2A	[2f	4a	.	.	.	.
4E	.	.	4g	.	.	.	.
=9	=9	=9	=9	=9	=9	=9	=9
2D	2.d	4f]	2f	0r	1r	1r	0r
.	.	4e	.	.	.	.	.
2B-	.	1d	2g	.	.	.	.
.	4e	.	.	.	.	.	.
1A	2f	.	[1a	.	2r	2r	.
.	2e	2c#	.	.	2e	2a	.
=10	=10	=10	=10	=10	=10	=10	=10
0D	4d	0d	1a]	2r	2f	2a	2r
.	4e	.	.	.	.	.	.
.	4f	.	.	2d	4d	2.a	2ff
.	4g	.	.	.	4e	.	.
.	1a	.	1f	2d	4f	.	2ff
.	.	.	.	.	4g	4g	.
.	.	.	.	[2d	2a	2f	[2ff
=11	=11	=11	=11	=11	=11	=11	=11
0r	0r	0r	1r	4d]	2f	2a	4ff]
.	.	.	.	4c	.	.	4ee
.	.	.	.	2B-	2g	2b-	2dd
.	.	.	2r	2c	2e	1a	2cc
.	.	.	2dd	2d	2f#	.	2a
=12	=12	=12	=12	=12	=12	=12	=12
2r	2r	2r	2dd	0G	0g	2.g	2.b-
2G	2d	2b-	2.dd	.	.	.	.
.	.	.	.	.	.	8f	4cc
.	.	.	.	.	.	8e	.
2G	2d	2b-	.	.	.	1d	1dd
.	.	.	4cc	.	.	.	.
[2G	[2d	[2b-	2b-	.	.	.	.
=13	=13	=13	=13	=13	=13	=13	=13
4G]	4d]	4b-]	2dd	0r	1r	0r	1r
4F	4d	4a	.	.	.	.	.
2E	2e	2g	1cc	.	.	.	.
2F	2d	2a	.	.	2r	.	2r
2G	2d	2g	2b	.	2g	.	2gg
=14	=14	=14	=14	=14	=14	=14	=14
0C	0c	0g	0cc	2r	2e	2r	2gg
.	.	.	.	2c	4c	2g	1gg
.	.	.	.	.	4d	.	.
.	.	.	.	2c	4e	2cc	.
.	.	.	.	.	4f	.	.
.	.	.	.	[2c	4g	[2cc	2ee
.	.	.	.	.	4f	.	.
=15	=15	=15	=15	=15	=15	=15	=15
0r	1r	0r	1r	2c]	2e	2cc]	2gg
.	.	.	.	2A	2a	2cc	1ff
.	2r	.	2r	2B-	2g	2b-	.
.	2c	.	2cc	2c	2g	2g	2ee
=16	=16	=16	=16	=16	=16	=16	=16
2r	2A	2r	2cc	0F	0f	0a	0ff
2F	4F	2a	1cc	.	.	.	.
.	4G	.	.	.	.	.	.
2F	4A	2f	.	.	.	.	.
.	4B-	.	.	.	.	.	.
[2F	4c	[2f	2a	.	.	.	.
.	4B-	.	.	.	.	.	.
=17	=17	=17	=17	=17	=17	=17	=17
2F]	2A	2f]	2cc	0r	0r	0r	0r
2D	2d	2f	1b-	.	.	.	.
2E	2c	2g	.	.	.	.	.
2F	2c	2f	2a	.	.	.	.
=18	=18	=18	=18	=18	=18	=18	=18
0BB-	2.d	0f	0b-	0r	2.B-	0r	1r
.	4c	.	.	.	4B-	.	.
.	1B-	.	.	.	2d	.	2.f
.	.	.	.	.	2d	.	.
.	.	.	.	.	.	.	4f
=19	=19	=19	=19	=19	=19	=19	=19
0r	0r	0r	0r	2.F	2.f	1r	2a
.	.	.	.	.	.	.	2a
.	.	.	.	4F	4e	.	.
.	.	.	.	2A	[1e	2.c	2.cc
.	.	.	.	2A	.	.	.
.	.	.	.	.	.	4c	4cc
=20	=20	=20	=20	=20	=20	=20	=20
0r	0r	0r	0r	2.c	2e]	2e	2g
.	.	.	.	.	2c	2e	1cc
.	.	.	.	4c	.	.	.
.	.	.	.	1G	2.d	2.g	.
.	.	.	.	.	.	.	2b-
.	.	.	.	.	4e	4g	.
=21	=21	=21	=21	=21	=21	=21	=21
0r	0r	0r	0r	2A	1f	2c	2a
.	.	.	.	2B-	.	1d	4g
.	.	.	.	.	.	.	4f
.	.	.	.	1G	4g	.	1b-
.	.	.	.	.	4f	.	.
.	.	.	.	.	4e	[2e	.
.	.	.	.	.	4d	.	.
=22	=22	=22	=22	=22	=22	=22	=22
0r	0r	0r	0r	0A	2c#	4e]	[0a
.	.	.	.	.	.	8d	.
.	.	.	.	.	.	8e	.
.	.	.	.	.	1d	2f	.
.	.	.	.	.	.	1e	.
.	.	.	.	.	2c#	.	.
=23	=23	=23	=23	=23	=23	=23	=23
2r	2r	2r	2r	0d	2.d	2.f	1a]
2.D	2.d	2.f	2.a	.	.	.	.
.	.	.	.	.	4e	4g	.
.	.	.	.	.	2f	2a	1r
4D	4d	4f	4a	.	.	.	.
2G	2d	2g	2b-	.	2B-	2d	.
=24	=24	=24	=24	=24	=24	=24	=24
1F	1f	1a	1cc	2r	2r	2r	2r
.	.	.	.	2.A	2.F	2.f	2.a
1D	1f	1a	1dd	.	.	.	.
.	.	.	.	4A	4F	4f	4a
.	.	.	.	2d	2f	2f	2a
=25	=25	=25	=25	=25	=25	=25	=25
1r	1r	1r	1r	1c	1e	1g	1cc
2r	2r	2r	2r	1A	1e	1a	1cc
[2A	[2e	[2a	[2cc	.	.	.	.
=26	=26	=26	=26	=26	=26	=26	=26
4A]	4e]	4a]	4cc]	0r	0r	0r	0r
4A	4e	4a	4cc	.	.	.	.
2d	2f	2a	2dd	.	.	.	.
2c	2g	2cc	2ee	.	.	.	.
2c	2g	2cc	2ee	.	.	.	.
=27	=27	=27	=27	=27	=27	=27	=27
2A	1a	2cc	2ee	0r	0r	0r	0r
2F	.	2cc	2ff	.	.	.	.
2B-	2d	2b-	2ff	.	.	.	.
2c	[2g	2g	2ee	.	.	.	.
=28	=28	=28	=28	=28	=28	=28	=28
1d	2g]	2b-	0dd	2r	1r	0r	2r
.	2f#	4a	.	1d	.	.	1a
.	.	4g	.	.	.	.	.
1D	1f#	1a	.	.	2r	.	.
.	.	.	.	2d	[2d	.	2a
=29	=29	=29	=29	=29	=29	=29	=29
0r	0r	0r	0r	2G	2d]	2.g	2b
.	.	.	.	2G	2d	.	2b
.	.	.	.	.	.	4g	.
.	.	.	.	1c	2e	2g	1cc
.	.	.	.	.	2e	2a	.
=30	=30	=30	=30	=30	=30	=30	=30
0r	0r	0r	0r	2B-	2f	2b-	2dd
.	.	.	.	1B-	2g	2b-	2.dd
.	.	.	.	.	2f	2b-	.
.	.	.	.	.	.	.	4dd
.	.	.	.	2B-	2d	2f	2dd
=31	=31	=31	=31	=31	=31	=31	=31
0r	0r	0r	0r	2.E-	2.e-	2.g	2cc
.	.	.	.	.	.	.	1b-
.	.	.	.	4E-	4e-	4g	.
.	.	.	.	1F	2d	1f	.
.	.	.	.	.	[2c	.	[2a
=32	=32	=32	=32	=32	=32	=32	=32
0r	0r	0r	0r	1G	4c]	1.d	4a]
.	.	.	.	.	4B-	.	4g
.	.	.	.	.	4B-	.	1g
.	.	.	.	.	8A	.	.
.	.	.	.	.	8G	.	.
.	.	.	.	1D	2A	.	.
.	.	.	.	.	2A	2d	2f#
!! Deum Deo
*Ibass	*Itenor	*Icalto	*Icant	*Ibass	*Itenor	*Icalto	*Icant
!Bassus	!Tenor	!Altus	!Cantus	!Bassus	!Tenor	!Altus	!Cantus
*clefF4	*clefGv2	*clefG2	*clefG2	*clefF4	*clefGv2	*clefG2	*clefG2
*k[b-]	*k[b-]	*k[b-]	*k[b-]	*k[b-]	*k[b-]	*k[b-]	*k[b-]
*G:dor	*G:dor	*G:dor	*G:dor	*G:dor	*G:dor	*G:dor	*G:dor
*M3/2	*M3/2	*M3/2	*M3/2	*M3/2	*M3/2	*M3/2	*M3/2
=33	=33	=33	=33	=33	=33	=33	=33
1G	1d	1g	1b-	1G	1G	1d	1g
2D	2d	2f	2a	2r	2r	2r	2r
=34	=34	=34	=34	=34	=34	=34	=34
2G	2d	2g	2b-	1r	1r	1r	1r
1F	1f	1a	1cc	.	.	.	.
.	.	.	.	2r	2r	2r	2r
=35	=35	=35	=35	=35	=35	=35	=35
2B-	2f	2b-	2dd	1r	1r	1r	1r
2BB-	2f	2b-	2dd	.	.	.	.
2F	2f	2a	2cc	2r	2r	2r	2r
=36	=36	=36	=36	=36	=36	=36	=36
2D	2f	2a	2dd	1r	1r	1r	1r
2.G	2.d	2.g	2.b-	.	.	.	.
.	.	.	.	2r	2r	2r	2r
4G	4d	4g	4b-	.	.	.	.
=37	=37	=37	=37	=37	=37	=37	=37
1D	1d	1f#	1a	1d	2r	1a	1dd
.	.	.	.	.	2d	.	.
2r	2r	2r	2r	2A	2e	2a	2cc#
=38	=38	=38	=38	=38	=38	=38	=38
1r	1r	1r	1r	1d	1f	1a	1dd
2r	2r	2r	2r	2c	2g	2cc	2ee
=39	=39	=39	=39	=39	=39	=39	=39
1r	1r	1r	1r	1F	1a	1cc	1ff
2r	2r	2r	2r	2c	2g	2cc	2ee
=40	=40	=40	=40	=40	=40	=40	=40
1r	1r	1r	1r	2A	2a	2cc	2ee
.	.	.	.	1d	1f	1a	1dd
2r	2r	2r	2r	.	.	.	.
!! Genitum
*Ibass	*Itenor	*Icalto	*Icant	*Ibass	*Itenor	*Icalto	*Icant
!Bassus	!Tenor	!Altus	!Cantus	!Bassus	!Tenor	!Altus	!Cantus
*clefF4	*clefGv2	*clefG2	*clefG2	*clefF4	*clefGv2	*clefG2	*clefG2
*k[b-]	*k[b-]	*k[b-]	*k[b-]	*k[b-]	*k[b-]	*k[b-]	*k[b-]
*G:dor	*G:dor	*G:dor	*G:dor	*G:dor	*G:dor	*G:dor	*G:dor
*M4/2	*M4/2	*M4/2	*M4/2	*M4/2	*M4/2	*M4/2	*M4/2
=41	=41	=41	=41	=41	=41	=41	=41
2.A	2r	2.a	2.ee	1A	1e	1a	1cc#
.	2.a	.	.	.	.	.	.
4A	.	4a	4ee	.	.	.	.
2d	.	2f	2ff	1r	1r	1r	1r
.	4a	.	.	.	.	.	.
2d	2f	2a	2ff	.	.	.	.
=42	=42	=42	=42	=42	=42	=42	=42
2c	2g	2cc	2ee	0r	0r	0r	0r
4G	1g	1b-	4dd	.	.	.	.
4A	.	.	4cc	.	.	.	.
4B-	.	.	4dd	.	.	.	.
4c	.	.	4ee	.	.	.	.
[2d	4f	4a	[2ff	.	.	.	.
.	4e	4g	.	.	.	.	.
=43	=43	=43	=43	=43	=43	=43	=43
4d]	1d	2.f	4ff]	1r	1r	1r	1r
4c	.	.	4ee	.	.	.	.
2B-	.	.	1dd	.	.	.	.
.	.	4g	.	.	.	.	.
1A	1e	[1a	.	2.A	2r	2.a	2.ee
.	.	.	2cc#	.	[2a	.	.
.	.	.	.	4A	.	4a	4ee
=44	=44	=44	=44	=44	=44	=44	=44
1D	1d	1a]	1dd	2d	4a]	2f	2ff
.	.	.	.	.	4a	.	.
.	.	.	.	2d	2f	2a	2ff
1r	1r	1r	1r	2c	2g	2cc	2ee
.	.	.	.	4G	[2g	[2b-	4dd
.	.	.	.	4A	.	.	4cc
=45	=45	=45	=45	=45	=45	=45	=45
0r	0r	0r	0r	4B-	2g]	2b-]	4dd
.	.	.	.	4c	.	.	4ee
.	.	.	.	2.d	4f	4a	2.ff
.	.	.	.	.	4e	4g	.
.	.	.	.	.	2d	1f	.
.	.	.	.	4c	.	.	4ee
.	.	.	.	2B-	2d	.	2dd
=46	=46	=46	=46	=46	=46	=46	=46
2r	1a	2r	2r	1A	1e	1a	1cc#
2A	.	2a	2ee	.	.	.	.
2d	2f	2a	2ff	1D	1d	1a	1dd
[2d	[2f	[2a	[2dd	.	.	.	.
=47	=47	=47	=47	=47	=47	=47	=47
4d]	4f]	4a]	4dd]	1r	1r	1r	1r
4d	4f	4a	4dd	.	.	.	.
2G	2g	2b-	2dd	.	.	.	.
2d	2g	2a	2dd	1D	2r	2r	2r
2d	2f#	2a	2dd	.	2d	2d	2a
=48	=48	=48	=48	=48	=48	=48	=48
2.G	1g	[0g	1dd	2G	2B-	2d	2b-
.	.	.	.	2.G	2B-	2.g	2.dd
4A	.	.	.	.	.	.	.
2B	2r	.	2r	.	2G	.	.
.	.	.	.	4G	.	4g	4dd
2c	[2g	.	[2gg	2C	2e-	2g	2cc
=49	=49	=49	=49	=49	=49	=49	=49
1G	2g]	1g_	2gg]	2G	2d	2g	2cc
.	2d	.	2gg	2G	2d	2g	2b
1c	4e	1g_	[1ee	1C	1c	1g	1cc
.	4d	.	.	.	.	.	.
.	4e	.	.	.	.	.	.
.	4f	.	.	.	.	.	.
=50	=50	=50	=50	=50	=50	=50	=50
0C	4g	0g]	0ee]	2r	2r	2r	2r
.	4f	.	.	.	.	.	.
.	4e	.	.	2c	2e	2g	2cc
.	4d	.	.	.	.	.	.
.	1c	.	.	2c	2e	2g	2cc
.	.	.	.	2c	2e	2g	2cc
=51	=51	=51	=51	=51	=51	=51	=51
0r	0r	0r	0r	1c	1e	1g	1cc
.	.	.	.	2G	2d	2g	2b
.	.	.	.	2c	2e	2g	2cc
=52	=52	=52	=52	=52	=52	=52	=52
2r	2r	2r	2r	[0F	[0f	4a	2.cc
.	.	.	.	.	.	4g	.
2F	2c	2a	2ff	.	.	4a	.
.	.	.	.	.	.	4b-	4b-
2F	2c	2a	2ff	.	.	4cc	4a
.	.	.	.	.	.	4b-	4g
2F	2c	2a	2ff	.	.	4a	4a
.	.	.	.	.	.	4g	4b-
=53	=53	=53	=53	=53	=53	=53	=53
1F	1c	1a	1ff	1F]	1f]	1a	1cc
2C	2c	2g	2ee	1r	1r	1r	1r
2F	2c	2a	2ff	.	.	.	.
=54	=54	=54	=54	=54	=54	=54	=54
0BB-	0B-	0f	0dd	1r	2r	2r	1r
.	.	.	.	.	2B-	2d	.
.	.	.	.	2r	1d	1f	2r
.	.	.	.	2B-	.	.	2dd
=55	=55	=55	=55	=55	=55	=55	=55
0BB-	0B-	0f	0dd	1d	4B-	2d	1ff
.	.	.	.	.	4c	.	.
.	.	.	.	.	4d	4B-	.
.	.	.	.	.	4e	4c	.
.	.	.	.	[1B-	2.f	4d	2dd
.	.	.	.	.	.	4e	.
.	.	.	.	.	.	[2f	4b-
.	.	.	.	.	4e	.	4cc
=56	=56	=56	=56	=56	=56	=56	=56
0r	0r	0r	0r	2B-]	2d	4f]	4dd
.	.	.	.	.	.	4g	4ee
.	.	.	.	4A	4c	4a	1ff
.	.	.	.	4G	4B-	4b-	.
.	.	.	.	4F	2A	[1cc	.
.	.	.	.	4G	.	.	.
.	.	.	.	4A	[2a	.	4ee
.	.	.	.	4B-	.	.	4dd
=57	=57	=57	=57	=57	=57	=57	=57
1r	0r	0r	1r	2c	2a]	1cc]	1ee
.	.	.	.	2c	1g	.	.
1D	.	.	2r	1d	.	1a	1dd
.	.	.	2a	.	2f#	.	.
=58	=58	=58	=58	=58	=58	=58	=58
1B-	1G	2r	1dd	0G	1g	0g	2dd
.	.	1g	.	.	.	.	2b-
[1G	2.B-	.	2b-	.	1d	.	1dd
.	.	[2b-	4g	.	.	.	.
.	4A	.	4a	.	.	.	.
=59	=59	=59	=59	=59	=59	=59	=59
2G]	2G	2b-]	4b-	2r	2d	2r	0dd
.	.	.	4cc	.	.	.	.
2F#	2A	2a	2dd	2D	2A	2a	.
1G	2r	1g	1b-	4G	2B-	2d	.
.	.	.	.	4A	.	.	.
.	2d	.	.	4B-	[2d	2g	.
.	.	.	.	4c	.	.	.
=60	=60	=60	=60	=60	=60	=60	=60
2D	1f	1a	2a	1d	4d]	2f	2r
.	.	.	.	.	4e	.	.
2D	.	.	4f	.	2.f	2d	2dd
.	.	.	4g	.	.	.	.
2D	2d	1f	4a	2d	.	1a	1ff
.	.	.	4b-	.	4g	.	.
2F	2c	.	[2a	2A	2a	.	.
=61	=61	=61	=61	=61	=61	=61	=61
1G	1B-	2r	4a]	2.B-	[0d	2r	2dd
.	.	.	4g	.	.	.	.
.	.	2d	1g	.	.	2g	2dd
.	.	.	.	4G	.	.	.
1D	1A	1d	.	1d	.	1a	1dd
.	.	.	2f#	.	.	.	.
=62	=62	=62	=62	=62	=62	=62	=62
0G	0G	0d	0g	1G	1d]	1b	1dd
.	.	.	.	2r	2r	2r	2r
.	.	.	.	2G	2g	2b-	[2dd
=63	=63	=63	=63	=63	=63	=63	=63
0r	0r	0r	0r	1.d	2.f	2.a	2dd]
.	.	.	.	.	.	.	1ff
.	.	.	.	.	4e	4g	.
.	.	.	.	.	2d	2f	.
.	.	.	.	2c	2e	2g	2ee
=64	=64	=64	=64	=64	=64	=64	=64
0r	0r	0r	0r	2B-	2f	1b-	2dd
.	.	.	.	2G	2g	.	2dd
.	.	.	.	1A	1e	1a	4cc
.	.	.	.	.	.	.	4b-
.	.	.	.	.	.	.	4a
.	.	.	.	.	.	.	4g
=65	=65	=65	=65	=65	=65	=65	=65
1D	2r	2r	1a	1d	1d	1a	1f#
.	2d	2f#	.	.	.	.	.
[1G	2.d	[1g	[1b-	1r	1r	1r	1r
.	4c	.	.	.	.	.	.
=66	=66	=66	=66	=66	=66	=66	=66
2G]	2B-	2g]	2b-]	0r	0r	0r	0r
2F	2c	2a	2a	.	.	.	.
1E-	1e-	1b-	1g	.	.	.	.
=67	=67	=67	=67	=67	=67	=67	=67
1C	1e-	2a	1cc	0r	0r	0r	0r
.	.	1g	.	.	.	.	.
[1D	[1d	.	2b-	.	.	.	.
.	.	4f#	4a	.	.	.	.
.	.	4e	4g	.	.	.	.
=68	=68	=68	=68	=68	=68	=68	=68
1D]	1d]	1f#	1a	1.d	2r	1.a	2r
.	.	.	.	.	1f#	.	1dd
1r	1r	1r	1r	.	.	.	.
.	.	.	.	2d	2f#	2a	2dd
=69	=69	=69	=69	=69	=69	=69	=69
2r	2r	2r	2r	1G	1g	1g	1b
1G	1B	1g	1dd	.	.	.	.
.	.	.	.	1G	2d	1g	1dd
2G	2B	2g	2dd	.	4g	.	.
.	.	.	.	.	4f	.	.
=70	=70	=70	=70	=70	=70	=70	=70
1C	1c	1g	1ee	1.c	4e	1g	1.cc
.	.	.	.	.	4d	.	.
.	.	.	.	.	4e	.	.
.	.	.	.	.	4f	.	.
1C	1c	1g	1ee	.	2g	1e	.
.	.	.	.	2c	2g	.	2cc
=71	=71	=71	=71	=71	=71	=71	=71
1.F	1c	1a	1.ff	0F	[0f	0a	0cc
.	1A	1cc	.	.	.	.	.
2F	.	.	2ff	.	.	.	.
=72	=72	=72	=72	=72	=72	=72	=72
0BB-	1B-	1b-	0ff	0B-	1f]	0d	0dd
.	1d	[1b-	.	.	2r	.	.
.	.	.	.	.	2B-	.	.
=73	=73	=73	=73	=73	=73	=73	=73
0E-	1e-	1b-]	0gg	0G	1.B-	0g	1b-
.	1B-	[1g	.	.	.	.	1b-
.	.	.	.	.	2G	.	.
=74	=74	=74	=74	=74	=74	=74	=74
1C	0c	2g]	0ee-	0c	2.e-	1g	2r
.	.	2c	.	.	.	.	2.cc
.	.	.	.	.	4d	.	.
1C	.	[1g	.	.	1c	2r	.
.	.	.	.	.	.	.	4b-
.	.	.	.	.	.	[2g	4g
.	.	.	.	.	.	.	4a
=75	=75	=75	=75	=75	=75	=75	=75
0G	0B-	0g]	1dd	0G	[0d	2g]	4b-
.	.	.	.	.	.	.	4cc
.	.	.	.	.	.	2.b-	2dd
.	.	.	[1dd	.	.	.	2.b-
.	.	.	.	.	.	4a	.
.	.	.	.	.	.	[2g	.
.	.	.	.	.	.	.	4cc
=76	=76	=76	=76	=76	=76	=76	=76
0D	0A	1a	1dd]	0d	0d]	2g]	0dd
.	.	.	.	.	.	4f#	.
.	.	.	.	.	.	4e	.
.	.	1d	1a	.	.	1f#	.
=77	=77	=77	=77	=77	=77	=77	=77
0G	0G	0d	0b	0G	0B	0g	0dd
*	*	*	*	*-	*-	*-	*-
!! Crucifixus
*Ibass	*Itenor	*Icalto	*Icant
!Bassus	!Tenor	!Altus	!Cantus
*clefF4	*clefGv2	*clefG2	*clefG2
*k[b-]	*k[b-]	*k[b-]	*k[b-]
*G:dor	*G:dor	*G:dor	*G:dor
*M4/2	*M4/2	*M4/2	*M4/2
=78	=78	=78	=78
1r	0d	0r	0r
[1G	.	.	.
=79	=79	=79	=79
1G]	1e	0r	0r
1A	1f	.	.
=80	=80	=80	=80
1B-	1d	0r	0r
2G	[1e-	.	.
[2c	.	.	.
=81	=81	=81	=81
2c]	2e-]	0r	0r
2B-	2d	.	.
2A	2c	.	.
[2G	2B-	.	.
=82	=82	=82	=82
2G]	1A	0r	1r
2F	.	.	.
2.B-	2.G	.	[1dd
4A	4A	.	.
=83	=83	=83	=83
2.G	4B-	0g	1dd]
.	4c	.	.
.	2.d	.	.
4F	.	.	.
1E	.	.	1ee
.	4c#	.	.
.	4c#	.	.
.	4B	.	.
=84	=84	=84	=84
1D	1d	1a	1ff
1r	1G	1b-	1dd
=85	=85	=85	=85
0r	1.c	2g	1.ee-
.	.	1cc	.
.	2d	2b-	2dd
=86	=86	=86	=86
0r	2f	2a	2cc
.	2g	2.g	2b-
.	1d	.	1a
.	.	4f#	.
.	.	2f#	.
=87	=87	=87	=87
2r	1G	2.g	2.b-
2G	.	.	.
.	.	8f	4cc
.	.	8e	.
2.B-	2r	4d	1dd
.	.	4e	.
.	2d	4f	.
4B-	.	4g	.
=88	=88	=88	=88
2A	2.f	0a	0cc
2F	.	.	.
.	4f	.	.
4A	2e	.	.
4G	.	.	.
4A	2c	.	.
4B-	.	.	.
=89	=89	=89	=89
2.c	4e	1g	2r
.	4d	.	.
.	4e	.	2g
8B-	4f	.	.
8A	.	.	.
1G	1g	1r	2.b-
.	.	.	4b-
=90	=90	=90	=90
0D	2.f	2r	2a
.	.	2d	2f
.	4e	.	.
.	1d	2.f	4a
.	.	.	4g
.	.	.	4a
.	.	4f	4b-
=91	=91	=91	=91
2r	1A	2e	1cc
2A	.	2c	.
2.c	1r	4e	2g
.	.	4d	.
.	.	4e	2g
4c	.	4f	.
=92	=92	=92	=92
2B-	1r	1g	4b-
.	.	.	4a
2G	.	.	4b-
.	.	.	4cc
4B-	2r	1d	1dd
4A	.	.	.
4B-	[2f	.	.
4c	.	.	.
=93	=93	=93	=93
2.d	2f]	2r	1a
.	2d	1f	.
4c	.	.	.
[1B-	2.f	.	2r
.	.	2d	[2ff
.	4e	.	.
=94	=94	=94	=94
1B-]	4d	2f	2ff]
.	4c	.	.
.	1d	2g	2dd
1A	.	1a	2ff
.	2c	.	2ee
=95	=95	=95	=95
1r	2B-	1b-	2dd
.	2B-	.	2dd
2r	1F	2a	4cc
.	.	.	4b-
[2F	.	[2cc	4a
.	.	.	4g
=96	=96	=96	=96
2F]	1.f	2cc]	2a
2D	.	2b-	2dd
2F	.	2a	2cc
2G	2d	2g	2b-
=97	=97	=97	=97
2A	2f	2f	2a
2B-	2g	4e	1dd
.	.	4d	.
1A	1a	2e	.
.	.	2e	2cc#
=98	=98	=98	=98
2.B-	2f	1d	0dd
.	1g	.	.
4c	.	.	.
[1d	.	2r	.
.	4f#	2a	.
.	4e	.	.
=99	=99	=99	=99
1d]	1f#	2a	2r
.	.	2a	2dd
1G	1g	1b-	2dd
.	.	.	2dd
=100	=100	=100	=100
0r	1d	1a	1ff
.	1r	2.cc	2ee
.	.	.	[2gg
.	.	4cc	.
=101	=101	=101	=101
1r	0r	2g	4gg]
.	.	.	4gg
.	.	2.b-	2dd
2r	.	.	2ff
.	.	4a	.
2A	.	4cc	4ee
.	.	4b-	4dd
=102	=102	=102	=102
2A	1r	4a	4cc
.	.	4g	4b-
2A	.	4f	4a
.	.	4e	4g
1B-	2r	4d	2f
.	.	4c	.
.	2d	[2d	2g
=103	=103	=103	=103
1A	2e	4d]	0a
.	.	8c#	.
.	.	8B	.
.	2e	2c#	.
2.d	1f	2d	.
.	.	[2a	.
4d	.	.	.
=104	=104	=104	=104
2c	2e	4a]	0r
.	.	4g	.
4G	2.g	1b-	.
4A	.	.	.
4B-	.	.	.
4c	4g	.	.
[2d	2f	2a	.
=105	=105	=105	=105
4d]	4d	1a	2r
4c	4e	.	.
4A	4f	.	2a
4B-	4d	.	.
2c	2e	1r	2a
2d	2f	.	2a
=106	=106	=106	=106
1G	1g	2r	1b-
.	.	2d	.
[1D	2.f	2d	1a
.	.	2d	.
.	4e	.	.
=107	=107	=107	=107
1D]	2d	1f	2.dd
.	2A	.	.
.	.	.	4dd
1r	4A	1e	2cc
.	4A	.	.
.	2c	.	4g
.	.	.	4a
=108	=108	=108	=108
1r	1G	2.g	4b-
.	.	.	4cc
.	.	.	2.dd
.	.	4g	.
2.d	1r	4f	.
.	.	4g	4ee
.	.	4a	4ff
4d	.	4b-	4dd
=109	=109	=109	=109
2c	2r	2cc	2ee
4G	2.g	1b-	4dd
4A	.	.	4cc
4B-	.	.	4dd
4c	4g	.	4ee
[2d	2f	4a	[2ff
.	.	4g	.
=110	=110	=110	=110
4d]	4d	2.f	4ff]
4c	4e	.	4ee
2B-	4f	.	1dd
.	4d	4g	.
1A	1e	1a	.
.	.	.	2cc#
=111	=111	=111	=111
0D	1d	2f	0dd
.	.	1a	.
.	2r	.	.
.	2d	[2b-	.
=112	=112	=112	=112
0r	1e-	2b-]	2r
.	.	2g	2b-
.	2c	2a	2cc
.	2d	[2b-	2f
=113	=113	=113	=113
1r	1e-	4b-]	2.g
.	.	4a	.
.	.	1g	.
.	.	.	4a
1D	1d	.	2b-
.	.	2f#	[2a
=114	=114	=114	=114
1E-	1G	2g	4a]
.	.	.	4g
.	.	2b-	1g
2C	2r	1a	.
2D	[2d	.	2f#
=115	=115	=115	=115
1E-	2d]	2r	1g
.	2c	1g	.
2D	2.d	.	2r
2D	.	2f#	2a
.	4c	.	.
=116	=116	=116	=116
1G	2B-	2.g	1b-
.	2e-	.	.
.	.	4a	.
2G	[1d	2b-	2g
2F#	.	2a	2a
=117	=117	=117	=117
0G	0d]	0g	0b-
=118	=118	=118	=118
0D	0d	0f#	0a
!! Et ascendit
*Ibass	*Itenor	*Icalto	*Icant
!Bassus	!Tenor	!Altus	!Cantus
*clefF4	*clefGv2	*clefG2	*clefG2
*k[b-]	*k[b-]	*k[b-]	*k[b-]
*G:dor	*G:dor	*G:dor	*G:dor
*M4/2	*M4/2	*M4/2	*M4/2
=119	=119	=119	=119
0r	1.A	0r	0r
.	2B-	.	.
=120	=120	=120	=120
0r	1c	0r	0r
.	2d	.	.
.	2e	.	.
=121	=121	=121	=121
0r	2.f	1.d	1r
.	4e	.	.
.	2d	.	[1a
.	2c	2e	.
=122	=122	=122	=122
0r	1d	1f	2a]
.	.	.	2b-
.	2.c	2g	1cc
.	.	2a	.
.	8B-	.	.
.	8A	.	.
=123	=123	=123	=123
1r	1G	1.b-	2dd
.	.	.	2ee
[1D	1d	.	[1ff
.	.	4a	.
.	.	4g	.
=124	=124	=124	=124
2D]	0r	2f	2ff]
2E	.	2g	4ee
.	.	.	4dd
1F	.	4a	2cc
.	.	4g	.
.	.	4f	[2dd
.	.	8e	.
.	.	8d	.
=125	=125	=125	=125
2G	1r	1e	2dd]
2A	.	.	2cc#
2.B-	2r	1d	[1dd
.	[2G	.	.
4A	.	.	.
=126	=126	=126	=126
2G	2G]	2r	1dd]
2F	2A	1d	.
1G	1B-	.	1r
.	.	2e	.
=127	=127	=127	=127
2.F	1c	1f	1.a
4E	.	.	.
2D	1d	2f	.
2G	.	2g	2b-
=128	=128	=128	=128
1F	2.f	2.a	1cc
.	4e	4g	.
1r	2f	2a	2dd
.	2g	2b-	2ee
=129	=129	=129	=129
2r	2.a	2.cc	2ff
2A	.	.	1ee
.	4g	4b-	.
2A	1f	4a	.
.	.	4g	.
2B-	.	2f	[2dd
=130	=130	=130	=130
2G	1e	2b-	4dd]
.	.	.	4cc
2A	.	2a	4cc
.	.	.	8dd
.	.	.	8ee
2D	1d	1a	1ff
[2d	.	.	.
=131	=131	=131	=131
2d]	1A	2r	1ee
4c#	.	2e	.
4B	.	.	.
2c#	1r	2e	2r
2d	.	2f	2a
=132	=132	=132	=132
1G	2r	2.d	2b-
.	2d	.	2b-
.	.	4e	.
1r	2d	2f	2a
.	2e-	[2g	2g
=133	=133	=133	=133
0r	2c	4g]	1a
.	.	8f#	.
.	.	8e	.
.	2d	2f#	.
.	2G	1g	1b-
.	[2g	.	.
=134	=134	=134	=134
2r	4g]	1d	1a
.	8f	.	.
.	8e	.	.
2d	4f	.	.
.	4g	.	.
2d	2a	2f	1r
2e-	[2g	2g	.
=135	=135	=135	=135
2c	2g]	2a	2r
2d	2f#	2a	2dd
2G	2.g	[1g	2dd
[2c	.	.	2ee-
.	4f	.	.
=136	=136	=136	=136
2c]	2e-	0g]	2cc
2B	2d	.	2dd
2.c	1e-	.	2g
.	.	.	[2gg
4B-	.	.	.
=137	=137	=137	=137
4G	1d	1b-	2gg]
4A	.	.	.
4B-	.	.	4ff
4c	.	.	4ee
[1d	2r	1a	1ff
.	2a	.	.
=138	=138	=138	=138
1d]	2a	2r	1dd
.	2a	2a	.
2r	2.f	2a	1r
2d	.	2a	.
.	4g	.	.
=139	=139	=139	=139
2d	1a	2.f	2r
2d	.	.	2dd
.	.	4e	.
2.B-	2r	1d	2dd
.	2d	.	2dd
4A	.	.	.
=140	=140	=140	=140
0G	2d	2r	2.b-
.	2d	2g	.
.	.	.	4a
.	4B-	2g	2g
.	4c	.	.
.	4d	2g	2gg
.	4B-	.	.
=141	=141	=141	=141
2r	4c	2.e	2gg
.	4d	.	.
2c	4e	.	2gg
.	4f	4d	.
2c	2g	1c	2.ee
2c	2c	.	.
.	.	.	4dd
=142	=142	=142	=142
2.A	2c	2r	1cc
.	2c	2cc	.
4G	.	.	.
[1F	2.A	2cc	2r
.	.	2cc	2ff
.	4G	.	.
=143	=143	=143	=143
1F]	2F	2.a	2ff
.	2f	.	2ff
.	.	4g	.
1B-	2f	2f	2.dd
.	2f	2d	.
.	.	.	4cc
=144	=144	=144	=144
2B-	2.d	1f	2b-
2B-	.	.	2.dd
.	4c	.	.
2.G	2B-	[1g	.
.	.	.	4cc
.	2G	.	[2b-
4F	.	.	.
=145	=145	=145	=145
1E-	1B-	1g]	4b-]
.	.	.	4a
.	.	.	1g
2D	1d	1a	.
2D	.	.	2f#
=146	=146	=146	=146
1G	1d	1.b-	1g
1F	[1f	.	1cc
.	.	[2a	.
=147	=147	=147	=147
1c	2f]	2a]	2r
.	1e	1g	1cc
1G	.	.	.
.	[2d	4f	[2b-
.	.	4e	.
=148	=148	=148	=148
1A	4d]	2f	2b-]
.	8c	.	.
.	8B-	.	.
.	2c	2.e	2.a
1B-	1d	.	.
.	.	4d	8g
.	.	.	8f
.	.	[2d	2g
=149	=149	=149	=149
1.A	1.e	2d]	1.a
.	.	4c#	.
.	.	4B	.
.	.	2c#	.
2A	2e	2c#	2a
=150	=150	=150	=150
1D	2.f	1d	1a
.	4e	.	.
2r	[1d	2r	2r
[2D	.	[2f	[2a
=151	=151	=151	=151
2D]	1d]	2f]	2a]
2G	.	2g	2b-
1F	2r	2.a	1cc
.	[2A	.	.
.	.	4g	.
=152	=152	=152	=152
4D	2A]	1f	1dd
4E	.	.	.
4F	2d	.	.
4G	.	.	.
4A	1c	1e	2r
4B-	.	.	.
[2c	.	.	2g
=153	=153	=153	=153
2c]	2G	1d	4g
.	.	.	4a
4B-	2G	.	4b-
4A	.	.	4cc
4B-	4G	2r	4dd
4A	4A	.	4cc
2G	4B-	2d	4dd
.	4c	.	4ee
=154	=154	=154	=154
1D	4d	4d	2.ff
.	4c	4e	.
.	4d	4f	.
.	4e	4g	8ee
.	.	.	8dd
1r	2.f	4a	2cc
.	.	4g	.
.	.	4a	2dd
.	8e-	4b-	.
.	8d	.	.
=155	=155	=155	=155
0r	2c	2cc	2ee-
.	2d	1b-	2dd
.	1e-	.	1g
.	.	4a	.
.	.	4g	.
=156	=156	=156	=156
1r	0d	2f	2a
.	.	1g	2b-
2r	.	.	1a
2D	.	4f	.
.	.	4e	.
=157	=157	=157	=157
4D	2r	1f	2a
4E	.	.	.
4F	2A	.	2a
4G	.	.	.
4A	4A	1e	2.cc
4G	4B-	.	.
4A	4c	.	.
4B-	4d	.	8b-
.	.	.	8a
=158	=158	=158	=158
2.c	4e	2r	2g
.	4d	.	.
.	4e	2c	2a
8B-	4f	.	.
8A	.	.	.
2G	2g	2d	2b-
2A	[2f	2c	[2a
=159	=159	=159	=159
1B-	4f]	1d	2a]
.	4e	.	.
.	1d	.	2g
1A	.	1e	2a
.	2c#	.	2ee
=160	=160	=160	=160
1D	1d	4d	2.ff
.	.	4e	.
.	.	4f	.
.	.	4g	8ee
.	.	.	8dd
2.F	2r	2a	2cc
.	2A	2f	2dd
8E	.	.	.
8D	.	.	.
=161	=161	=161	=161
2C	2c	2g	2ee-
2D	4B-	1b-	1dd
.	4A	.	.
1E-	2G	.	.
.	2A	4a	2cc
.	.	4g	.
=162	=162	=162	=162
0D	1B-	2f	0dd
.	.	1g	.
.	1A	.	.
.	.	2f#	.
=163	=163	=163	=163
0G	0G	0g	0b
*-	*-	*-	*-
!! Et in Spiritum
**kern	**kern	**kern	**kern	**kern	**kern	**kern	**kern
*Ibass	*Itenor	*Icalto	*Icant	*Ibass	*Itenor	*Icalto	*Icant
!Bassus	!Tenor	!Altus	!Cantus	!Bassus	!Tenor	!Altus	!Cantus
*clefF4	*clefGv2	*clefG2	*clefG2	*clefF4	*clefGv2	*clefG2	*clefG2
*k[b-]	*k[b-]	*k[b-]	*k[b-]	*k[b-]	*k[b-]	*k[b-]	*k[b-]
*G:dor	*G:dor	*G:dor	*G:dor	*G:dor	*G:dor	*G:dor	*G:dor
*M4/2	*M4/2	*M4/2	*M4/2	*M4/2	*M4/2	*M4/2	*M4/2
=164	=164	=164	=164	=164	=164	=164	=164
0r	0r	0r	0r	1r	0r	1r	1.g
.	.	.	.	[1G	.	[1b-	.
.	.	.	.	.	.	.	2g
=165	=165	=165	=165	=165	=165	=165	=165
0r	1r	0r	0r	2G]	1.d	2b-]	2b-
.	.	.	.	2G	.	2b-	2g
.	[1d	.	.	2B-	.	2b-	1dd
.	.	.	.	2G	2d	2b-	.
=166	=166	=166	=166	=166	=166	=166	=166
1.D	2d]	1.f	1.a	1d	2f	1a	1.dd
.	2d	.	.	.	2d	.	.
.	2f	.	.	1d	1a	[1f	.
2D	2d	2f	2a	.	.	.	2dd
=167	=167	=167	=167	=167	=167	=167	=167
2F	1a	2.f	2a	2A	1a	2f]	2cc
2D	.	.	2a	1d	.	2f	2ff
.	.	4d	.	.	.	.	.
1A	2r	1e	1a	.	1A	[1a	[1ee
.	[2a	.	.	4c#	.	.	.
.	.	.	.	4B	.	.	.
=168	=168	=168	=168	=168	=168	=168	=168
1A	2a]	1.a	1ee	2c#	2.A	2a]	1ee]
.	2e	.	.	2c#	.	2a	.
.	.	.	.	.	4A	.	.
2D	2f	.	2dd	1d	1d	1a	1r
[2d	2d	2a	[2ff	.	.	.	.
=169	=169	=169	=169	=169	=169	=169	=169
2d]	0A	1a	2ff]	1r	1r	1r	2r
4c#	.	.	4ee	.	.	.	1a
4B	.	.	4dd	.	.	.	.
2c#	.	1a	2ee	1A	1e	1a	.
2c#	.	.	2ee	.	.	.	2ee
=170	=170	=170	=170	=170	=170	=170	=170
1d	0r	1a	1dd	2D	1a	2f	1.ff
.	.	.	.	1d	.	2d	.
1r	.	1r	2r	.	2d	2f	.
.	.	.	2g	[2c	2e	[2g	2ee
=171	=171	=171	=171	=171	=171	=171	=171
1G	1d	1g	2g	4c]	1g	2g]	1dd
.	.	.	.	8B	.	.	.
.	.	.	.	8A	.	.	.
.	.	.	1gg	2B	.	2d	.
2C	1c	2e	.	1c	1g	2r	2.ee
[2c	.	2c	[2ee	.	.	[2g	.
.	.	.	.	.	.	.	4ff
=172	=172	=172	=172	=172	=172	=172	=172
2c]	1g	1d	2ee]	1G	2r	2g]	[0gg
2B	.	.	2.dd	.	2d	2g	.
1c	1e	[1g	.	1C	2e	2g	.
.	.	.	4cc	.	.	.	.
.	.	.	[2cc	.	2c	2e	.
=173	=173	=173	=173	=173	=173	=173	=173
0G	0d	0g]	2cc]	1G	2d	2.g	0gg]
.	.	.	4b	.	2d	.	.
.	.	.	4a	.	.	8f	.
.	.	.	.	.	.	8e	.
.	.	.	1b	2r	2G	1d	.
.	.	.	.	2G	[2g	.	.
=174	=174	=174	=174	=174	=174	=174	=174
0C	0c	0e	0cc	2G	2g]	1g	2r
.	.	.	.	2.c	2e	.	2g
.	.	.	.	.	[1e	2r	2g
.	.	.	.	4B-	.	.	.
.	.	.	.	4A	.	2c	[2cc
.	.	.	.	4G	.	.	.
=175	=175	=175	=175	=175	=175	=175	=175
0r	0r	0r	0r	2A	2e]	2c	2cc]
.	.	.	.	2d	2f	1f	2b
.	.	.	.	2.c	2.g	.	2.cc
.	.	.	.	.	.	2e	.
.	.	.	.	4c	4g	.	4cc
=176	=176	=176	=176	=176	=176	=176	=176
0r	0r	0r	0r	1F	1a	2.f	2cc
.	.	.	.	.	.	.	2.ff
.	.	.	.	.	.	4f	.
.	.	.	.	[1B-	2.d	2f	.
.	.	.	.	.	.	.	4ee
.	.	.	.	.	.	[2b-	4dd
.	.	.	.	.	4e	.	4cc
=177	=177	=177	=177	=177	=177	=177	=177
0r	0r	0r	0r	2B-]	2f	4b-]	2dd
.	.	.	.	.	.	4a	.
.	.	.	.	2c	1e	4g	2cc
.	.	.	.	.	.	4f	.
.	.	.	.	1G	.	2g	1b-
.	.	.	.	.	[2d	2f	.
=178	=178	=178	=178	=178	=178	=178	=178
1r	2r	0r	0r	0A	2d]	0e	[0a
.	2e	.	.	.	4c#	.	.
.	.	.	.	.	4B	.	.
2r	2e	.	.	.	1c#	.	.
2A	[2a	.	.	.	.	.	.
=179	=179	=179	=179	=179	=179	=179	=179
2A	2a]	1r	2r	1D	1d	1d	1a]
1d	1f	.	2a	.	.	.	.
.	.	1d	2a	1r	1r	1r	1r
[2B-	2f	.	[2dd	.	.	.	.
=180	=180	=180	=180	=180	=180	=180	=180
2B-]	2.d	2d	2dd]	0r	0r	0r	0r
2G	.	2g	1b-	.	.	.	.
.	4d	.	.	.	.	.	.
2G	[1d	2g	.	.	.	.	.
2d	.	2f#	2a	.	.	.	.
=181	=181	=181	=181	=181	=181	=181	=181
1G	2d]	2g	2.b	0r	0r	0r	0r
.	2g	2d	.	.	.	.	.
.	.	.	4b	.	.	.	.
[1c	2g	2e	2cc	.	.	.	.
.	[2e	2g	[2cc	.	.	.	.
=182	=182	=182	=182	=182	=182	=182	=182
2c]	4e]	2g	2cc]	1r	0r	0r	1r
.	4f	.	.	.	.	.	.
2c	1g	1e	2cc	.	.	.	.
2.A	.	.	2cc	[1c	.	.	[1cc
.	[2f	2a	2cc	.	.	.	.
4B-	.	.	.	.	.	.	.
=183	=183	=183	=183	=183	=183	=183	=183
1c	4f]	1g	1.cc	2c]	2.c	2.g	2cc]
.	8e	.	.	.	.	.	.
.	8d	.	.	.	.	.	.
.	2e	.	.	2c	.	.	2cc
.	.	.	.	.	4c	4g	.
1F	2f	1f	.	2.A	2c	2a	2cc
.	2c	.	2a	.	2f	2a	2cc
.	.	.	.	4B-	.	.	.
=184	=184	=184	=184	=184	=184	=184	=184
2r	2c	1r	2r	1c	1e	2g	1cc
2A	1c	.	2cc	.	.	2c	.
2A	.	2r	2cc	1F	1f	2r	1a
2A	[2A	2cc	2cc	.	.	2f	.
=185	=185	=185	=185	=185	=185	=185	=185
2.F	4A]	2cc	2.a	2r	2c	2f	2r
.	4B-	.	.	.	.	.	.
.	1c	2cc	.	2A	2c	2f	2cc
4G	.	.	4b-	.	.	.	.
1A	.	[1a	1cc	2A	2c	2e	2cc
.	[2F	.	.	2A	[2A	2f	2cc
=186	=186	=186	=186	=186	=186	=186	=186
2D	2F]	2a]	2dd	2.F	2A]	1.a	2.a
2F	2c	2f	4cc	.	2A	.	.
.	.	.	4b-	4G	.	.	4b-
2F	2c	[1f	4a	1A	1F	.	1cc
.	.	.	4b-	.	.	.	.
2F	2A	.	[2cc	.	.	[2a	.
=187	=187	=187	=187	=187	=187	=187	=187
2.D	2d	0f]	4cc]	0F	1f	4a]	4dd
.	.	.	4b-	.	.	4g	4ee
.	2d	.	1b-	.	.	2.f	2.ff
4E	.	.	.	.	.	.	.
1F	1c	.	.	.	2r	.	.
.	.	.	.	.	.	4g	4ee
.	.	.	2a	.	[2f	2a	2cc
=188	=188	=188	=188	=188	=188	=188	=188
1BB-	0B-	1f	0b-	2r	2f]	0d	1dd
.	.	.	.	1B-	2d	.	.
1r	.	1r	.	.	2f	.	2r
.	.	.	.	2G	2g	.	[2b-
=189	=189	=189	=189	=189	=189	=189	=189
0r	0r	0r	0r	2B-	2f	1r	2b-]
.	.	.	.	2c	2e	.	2g
.	.	.	.	2.d	1f	2r	2b-
.	.	.	.	.	.	[2f	2a
.	.	.	.	4c	.	.	.
=190	=190	=190	=190	=190	=190	=190	=190
0r	2r	0r	0r	0B-	4d	2f]	1dd
.	.	.	.	.	4e	.	.
.	1f	.	.	.	4f	2d	.
.	.	.	.	.	4e	.	.
.	.	.	.	.	4d	2f	2dd
.	.	.	.	.	4c	.	.
.	2d	.	.	.	4B-	2g	2dd
.	.	.	.	.	4G	.	.
=191	=191	=191	=191	=191	=191	=191	=191
1.F	2.f	2r	1r	0A	1c	2a	1cc
.	.	1a	.	.	.	2.f	.
.	4g	.	.	.	.	.	.
.	1a	.	[1ff	.	1F	.	1a
.	.	.	.	.	.	4g	.
2D	.	2f	.	.	.	[2a	.
=192	=192	=192	=192	=192	=192	=192	=192
2F	1d	2a	2ff]	2r	1r	2a]	1r
2G	.	2b-	2dd	1d	.	2d	.
1A	2r	1a	2ff	.	2r	1r	2r
.	2A	.	2ee	2c#	2A	.	2a
=193	=193	=193	=193	=193	=193	=193	=193
2r	4d	2f	1dd	1d	1f	2r	4a
.	4e	.	.	.	.	.	4g
1d	4f	2d	.	.	.	1a	4a
.	4g	.	.	.	.	.	4b-
.	2.a	2e	2r	1A	1e	.	4cc
.	.	.	.	.	.	.	4dd
2c#	.	2e	2ee	.	.	2a	[2ee
.	4g	.	.	.	.	.	.
=194	=194	=194	=194	=194	=194	=194	=194
1d	2f	2r	1ff	2D	1a	4a	2ee]
.	.	.	.	.	.	4g	.
.	2d	2a	.	2D	.	4f	1dd
.	.	.	.	.	.	4g	.
1A	1e	2a	2ee	1A	2r	4a	.
.	.	.	.	.	.	8g	.
.	.	.	.	.	.	8f	.
.	.	2a	2a	.	2a	2e	2cc#
=195	=195	=195	=195	=195	=195	=195	=195
2r	2d	1f	1a	1D	2a	2f	0dd
2d	2f	.	.	.	2a	2a	.
2d	2f	2.d	1r	2r	1f	2a	.
2d	[2f	.	.	2d	.	2a	.
.	.	4e	.	.	.	.	.
=196	=196	=196	=196	=196	=196	=196	=196
1B-	2f]	1f	1dd	2d	0d	2b-	1r
.	1d	.	.	2d	.	2f	.
1G	.	1g	2dd	1B-	.	2b-	1dd
.	2B-	.	2dd	.	.	[2b-	.
=197	=197	=197	=197	=197	=197	=197	=197
2r	2r	2r	1b-	0G	2r	4b-]	2dd
.	.	.	.	.	.	4a	.
2G	2G	2g	.	.	1d	4g	2dd
.	.	.	.	.	.	8f	.
.	.	.	.	.	.	8e	.
2G	2B-	2g	2g	.	.	2d	1b-
2G	2B-	2g	2gg	.	[2g	2d	.
=198	=198	=198	=198	=198	=198	=198	=198
0C	2.c	2.e	2gg	2r	2g]	2c	1g
.	.	.	2gg	2c	2e	2g	.
.	4d	4d	.	.	.	.	.
.	4e	1c	2.ee	2c	1e	2g	2r
.	4f	.	.	.	.	.	.
.	4g	.	.	2c	.	2g	2cc
.	4e	.	4dd	.	.	.	.
=199	=199	=199	=199	=199	=199	=199	=199
1F	1f	2r	1cc	2.A	2r	2.a	2cc
.	.	2c	.	.	1f	.	2cc
.	.	.	.	4G	.	4b-	.
2F	2r	2c	1ff	[1F	.	2cc	2.a
2F	[2f	2c	.	.	2f	2a	.
.	.	.	.	.	.	.	4g
=200	=200	=200	=200	=200	=200	=200	=200
2.D	2f]	2.d	2ff	1F]	2f	2a	1f
.	2f	.	2ff	.	2.d	2a	.
4C	.	4e	.	.	.	.	.
[1BB-	2f	[1f	2.dd	2r	.	1b-	2r
.	.	.	.	.	4c	.	.
.	[2d	.	.	2d	[2B-	.	2ff
.	.	.	4cc	.	.	.	.
=201	=201	=201	=201	=201	=201	=201	=201
0BB-]	4d]	1f]	0b-	2d	2B-]	2.B-	2ff
.	4c	.	.	.	.	.	.
.	1B-	.	.	2d	2f	.	2ff
.	.	.	.	.	.	4c	.
.	.	2r	.	2.B-	2f	1d	2.dd
.	2d	[2B-	.	.	2f	.	.
.	.	.	.	4A	.	.	4cc
=202	=202	=202	=202	=202	=202	=202	=202
0E-	2.e-	2B-]	2r	1G	1g	2r	1b-
.	.	2.b-	1g	.	.	1G	.
.	8d	.	.	.	.	.	.
.	8c	.	.	.	.	.	.
.	1B-	.	.	1G	1g	.	1b-
.	.	4a	.	.	.	.	.
.	.	[2g	[2ee-	.	.	[2g	.
=203	=203	=203	=203	=203	=203	=203	=203
1.C	2.c	4g]	4ee-]	1c	1e-	2g]	1.ee-
.	.	4f	4dd	.	.	.	.
.	.	1e-	4cc	.	.	2g	.
.	4c	.	4b-	.	.	.	.
.	[1G	.	2cc	1c	2c	[1g	.
2C	.	2c	2cc	.	[2g	.	2ee-
=204	=204	=204	=204	=204	=204	=204	=204
1G	1G]	1d	1b	0G	2g]	0g]	0dd
.	.	.	.	.	4f	.	.
.	.	.	.	.	4e-	.	.
2r	2r	2r	2r	.	1d	.	.
2G	2d	2g	2b	.	.	.	.
=205	=205	=205	=205	=205	=205	=205	=205
2.c	2.e	2.g	2.cc	0r	0r	0r	0r
4c	4e	4a	4cc	.	.	.	.
2B-	2f	2b-	2dd	.	.	.	.
2F	2a	2cc	2ff	.	.	.	.
=206	=206	=206	=206	=206	=206	=206	=206
2c	2g	2cc	2ee	1r	1r	1r	1r
2G	2g	2b-	2dd	.	.	.	.
1d	1f#	2a	1dd	2r	2r	2r	2r
.	.	2d	.	2D	2d	2a	2a
=207	=207	=207	=207	=207	=207	=207	=207
1G	1g	1d	1dd	2.G	2.d	2.g	2.b
.	.	.	.	4G	4d	4g	4b
1r	1r	1r	1r	2F	2f	2a	2cc
.	.	.	.	2C	2e	2g	2cc
=208	=208	=208	=208	=208	=208	=208	=208
1r	1r	0r	1r	2G	2d	2g	2b-
.	.	.	.	2D	2d	2f	2a
2r	2r	.	2r	1A	1c#	1e	1a
2A	[2a	.	2ee	.	.	.	.
=209	=209	=209	=209	=209	=209	=209	=209
2d	4a]	2r	2ff	1D	1d	1d	1a
.	4g	.	.	.	.	.	.
1d	4f	2d	1ff	.	.	.	.
.	4e	.	.	.	.	.	.
.	2d	2a	.	1r	1r	1r	1r
2c	2e	[2a	2ee	.	.	.	.
=210	=210	=210	=210	=210	=210	=210	=210
1B-	2f	2a]	1dd	0r	0r	0r	0r
.	2d	2g	.	.	.	.	.
2A	2e	2.a	2cc	.	.	.	.
4D	2d	.	4f	.	.	.	.
4E	.	4g	4g	.	.	.	.
=211	=211	=211	=211	=211	=211	=211	=211
4F	2r	2f	4a	0r	0r	0r	0r
4G	.	.	4b-	.	.	.	.
4A	2.a	2f	4cc	.	.	.	.
4B-	.	.	4dd	.	.	.	.
2c	.	2e	2ee	.	.	.	.
.	4g	.	.	.	.	.	.
[2d	4f	2d	[2ff	.	.	.	.
.	4e	.	.	.	.	.	.
=212	=212	=212	=212	=212	=212	=212	=212
4d]	2d	2.f	4ff]	1r	0r	1r	1r
4c	.	.	4ee	.	.	.	.
2B-	2d	.	1dd	.	.	.	.
.	.	4g	.	.	.	.	.
1A	1e	1a	.	2r	.	2r	2r
.	.	.	2cc#	2A	.	[2a	2ee
=213	=213	=213	=213	=213	=213	=213	=213
1D	1d	1a	1dd	2d	2r	4a]	2ff
.	.	.	.	.	.	4g	.
.	.	.	.	1d	2d	4f	1ff
.	.	.	.	.	.	4e	.
1r	1r	1r	1r	.	2a	2d	.
.	.	.	.	2c	[2a	2e	2ee
=214	=214	=214	=214	=214	=214	=214	=214
0r	0r	0r	0r	1B-	2a]	2f	1dd
.	.	.	.	.	2g	2d	.
.	.	.	.	2A	1a	2e	2cc
.	.	.	.	4D	.	2d	4f
.	.	.	.	4E	.	.	4g
=215	=215	=215	=215	=215	=215	=215	=215
0r	0r	0r	0r	4F	2f	2r	4a
.	.	.	.	4G	.	.	4b-
.	.	.	.	4A	2f	2a	4cc
.	.	.	.	4B-	.	.	4dd
.	.	.	.	2c	2e	2g	2ee
.	.	.	.	2d	[2a	4f	2ff
.	.	.	.	.	.	8g	.
.	.	.	.	.	.	8a	.
=216	=216	=216	=216	=216	=216	=216	=216
1r	1r	1r	1r	1G	4a]	1b-	1dd
.	.	.	.	.	4g	.	.
.	.	.	.	.	2g	.	.
2r	2r	2r	2r	[1d	2.f	2.a	[1dd
[2D	[2d	[2f	[2a	.	.	.	.
.	.	.	.	.	4e	4g	.
=217	=217	=217	=217	=217	=217	=217	=217
2D]	2d]	2f]	2a]	1d]	4d	4f	1dd]
.	.	.	.	.	4c	4e	.
2G	2d	2g	2b-	.	2B-	2d	.
1F	1f	1a	1cc	2r	2r	2r	2r
.	.	.	.	[2A	2F	[2f	[2a
=218	=218	=218	=218	=218	=218	=218	=218
1D	1f	1a	1dd	2A]	2F	2f]	2a]
.	.	.	.	2d	1f	2f	2a
1r	1r	1r	1r	1c	.	1g	1cc
.	.	.	.	.	[2e	.	.
=219	=219	=219	=219	=219	=219	=219	=219
0r	0r	0r	0r	2A	2e]	2a	2cc
.	.	.	.	2F	2f	2.a	2cc
.	.	.	.	2F	2f	.	2cc
.	.	.	.	.	.	4g	.
.	.	.	.	[2B-	4d	4f	[2dd
.	.	.	.	.	4e	4e	.
=220	=220	=220	=220	=220	=220	=220	=220
0r	0r	0r	0r	2B-]	4f	2d	2dd]
.	.	.	.	.	4g	.	.
.	.	.	.	2c	2.a	2e	2cc
.	.	.	.	1d	.	2f	2a
.	.	.	.	.	4g	.	.
.	.	.	.	.	[2f	2f	2b-
=221	=221	=221	=221	=221	=221	=221	=221
1r	1r	1r	1r	1c	2f]	2a	1cc
.	.	.	.	.	2e	2g	.
[1F	[1f	[1a	[1cc	1r	1r	1r	1r
=222	=222	=222	=222	=222	=222	=222	=222
1F]	2f]	1a]	1cc]	0r	0r	0r	0r
.	2e	.	.	.	.	.	.
1G	1d	2.g	1b-	.	.	.	.
.	.	4f	.	.	.	.	.
=223	=223	=223	=223	=223	=223	=223	=223
[0A	4c	2e	1.a	0r	0r	0r	0r
.	4B-	.	.	.	.	.	.
.	4A	2f	.	.	.	.	.
.	4B-	.	.	.	.	.	.
.	4c	1e	.	.	.	.	.
.	4d	.	.	.	.	.	.
.	[2e	.	2g	.	.	.	.
=224	=224	=224	=224	=224	=224	=224	=224
0A]	2e]	[0a	2f	0r	0r	0r	0r
.	1d	.	4e	.	.	.	.
.	.	.	4d	.	.	.	.
.	.	.	1e	.	.	.	.
.	2c#	.	.	.	.	.	.
=225	=225	=225	=225	=225	=225	=225	=225
0D	0d	0a]	0f#	2r	2r	2r	2r
.	.	.	.	2d	2f#	2a	2dd
.	.	.	.	1d	1f#	1a	1dd
=226	=226	=226	=226	=226	=226	=226	=226
2r	2r	2r	2r	0G	0g	0b	1dd
2G	2d	2g	2g	.	.	.	.
1G	1d	1g	1dd	.	.	.	2r
.	.	.	.	.	.	.	2gg
=227	=227	=227	=227	=227	=227	=227	=227
0C	0c	0g	2.ee	2r	2r	2r	2gg
.	.	.	.	2c	2g	2cc	2gg
.	.	.	4ff	.	.	.	.
.	.	.	1gg	2c	2g	2cc	4ee
.	.	.	.	.	.	.	4ff
.	.	.	.	2c	2e	2cc	[2gg
=228	=228	=228	=228	=228	=228	=228	=228
0r	2r	0r	1r	2.A	1a	1.cc	4gg]
.	.	.	.	.	.	.	4ff
.	2c	.	.	.	.	.	1ff
.	.	.	.	4B-	.	.	.
.	2c	.	2r	2c	2.g	.	.
.	2c	.	2cc	2c	.	2g	2ee
.	.	.	.	.	4g	.	.
=229	=229	=229	=229	=229	=229	=229	=229
2r	2.A	2r	2cc	[0F	[0f	2.a	1ff
2F	.	2a	2cc	.	.	.	.
.	4B-	.	.	.	.	4g	.
2F	2c	2a	4a	.	.	2f	2r
.	.	.	4b-	.	.	.	.
2F	2A	2a	[2cc	.	.	2c	2ff
=230	=230	=230	=230	=230	=230	=230	=230
2.D	1d	1.f	4cc]	0F]	1f]	2d	2ff
.	.	.	4b-	.	.	.	.
.	.	.	1b-	.	.	2.f	2ff
4E	.	.	.	.	.	.	.
2F	1c	.	.	.	[1f	.	2ff
.	.	.	.	.	.	4g	.
2F	.	2f	2a	.	.	2a	2cc
=231	=231	=231	=231	=231	=231	=231	=231
0BB-	0B-	4f	2.b-	0B-	1f]	1d	0dd
.	.	4e	.	.	.	.	.
.	.	4d	.	.	.	.	.
.	.	4c	8a	.	.	.	.
.	.	.	8g	.	.	.	.
.	.	1d	2f	.	1f	[1b-	.
.	.	.	[2b-	.	.	.	.
=232	=232	=232	=232	=232	=232	=232	=232
0E-	2r	2.e-	2b-]	0G	2r	1b-]	0gg
.	1B-	.	1g	.	1B-	.	.
.	.	8d	.	.	.	.	.
.	.	8c	.	.	.	.	.
.	.	1B-	.	.	.	[1g	.
.	[2e-	.	[2gg	.	2G	.	.
=233	=233	=233	=233	=233	=233	=233	=233
0C	4e-]	1c	4gg]	0c	2.g	1g]	0ee-
.	4d	.	4ff	.	.	.	.
.	1c	.	4ee-	.	.	.	.
.	.	.	4dd	.	4f	.	.
.	.	2.g	1cc	.	4e-	2r	.
.	.	.	.	.	4d	.	.
.	[2G	.	.	.	2c	[2g	.
.	.	4a	.	.	.	.	.
=234	=234	=234	=234	=234	=234	=234	=234
0G	2G]	4b-	2.b-	0G	1d	4g]	[0dd
.	.	4a	.	.	.	4a	.
.	2.d	4g	.	.	.	2.b-	.
.	.	4f	4a	.	.	.	.
.	.	1g	2g	.	[1d	.	.
.	4c	.	.	.	.	4a	.
.	2B-	.	[2d	.	.	[2g	.
=235	=235	=235	=235	=235	=235	=235	=235
0D	0A	1a	2d]	0d	2d]	2g]	0dd]
.	.	.	2.dd	.	2D	4f#	.
.	.	.	.	.	.	4e	.
.	.	1d	.	.	1d	1f#	.
.	.	.	4cc	.	.	.	.
.	.	.	2a	.	.	.	.
=236	=236	=236	=236	=236	=236	=236	=236
0G	0G	0d	0b	0G	0B	0g	0dd
==	==	==	==	==	==	==	==
*-	*-	*-	*-	*-	*-	*-	*-
!!!CDT: 1525/^1526/-1594/2/2
!!!OCY: Italia
!!!AGN: Mass (Parody)
!!!AST: renaissance, vocal
!!!ASW: Motet 1572 (Palestrina)
!!!PWK: Masses, Book 8vce
!!!RNB: Cadence finals: D,Bb
!!!YOR: Le Opere Complete, v. 30, p. 163
!!!YOO: Rome, Italy: Fratelli Scalera
!!!END: 1992//
!!!EED: John Miller
!!!YEC: Copyright 2000, John Miller
!!!YEN: United States of America
!!!YEM: Rights to all derivative electronic formats reserved.
!!!YEM: Refer to licensing agreement for further details.
!!!YEM: This file must be accompanied by the licensing agreement.
!!!YEM: A copy of the licensing agreement may be found at http://www.music-cog.ohio-state.edu/HumdrumDatabases/Palestrina/license.txt
!!!EMD: converted to Humdrum by Bret Aarden
